X: 2
T:Tom Tollins Hornpipe
M:4/4
L:1/16
S:Llewelyn Alaw MSS National Library of Wales. NLW MSS 329-337
Z:Mary Humphreys <mary:heddwch.com> tradtunes 2003-2-8
R:Hornpipe
F:http://trillian.mit.edu/~jc/music/abc/England/hornpipe/TomTollinsHornpipe_1.abc        2005-06-24 18:00:33 UT
K:G
B3c | d3cB3A G3gf3g | e8 d4 B4 | c3de3d c3BA3G | G3FA3F D3CB,3A, |
  B,3CD3E F3GA3B |  c8 e4 d4 | c3BA3G D3GF3A | G4 B4 G4 :|
|: d4 | g4 b3g d4 b4 | a8 g4 g4 | b3ag3f a3gf3e | e8 d4 d4 |
  g3dd3d a3dd3d | b3dd3d c'3dd3d | b3db3d c'3dc'3d | b3db3d c'3dc'3d |
c'3ba3g f3ed3c| c8 a8 | a3gf3e d3cB3A | B8 g8 |
  g3fe3d c3BA3G | E8 e8 | d3cB3A D3GF3A|G4 B4 G4 :|
